src/assets/paperPlane.svg

<svg width="50" height="50" viewBox="0 0 50 50" fill="none" xmlns="http://www.w3.org/2000/svg">
<g clip-path="url(#clip0)">
<path d="M38.5417 35.4166C38.3542 35.4166 38.1646 35.3812 37.9854 35.3146L1.00626 21.2521C0.402092 21.0229 0.00209156 20.4437 8.22703e-06 19.7979C-0.00207511 19.1521 0.391675 18.5687 0.997925 18.3354L47.8729 0.106223C48.4292 -0.108361 49.0625 0.0103893 49.5021 0.416639C49.9396 0.824973 50.1083 1.44789 49.9313 2.02081L40.0354 34.3125C39.9083 34.725 39.6167 35.0666 39.2292 35.2583C39.0125 35.3646 38.7771 35.4166 38.5417 35.4166ZM5.91668 19.775L37.5375 31.8L45.9979 4.18747L5.91668 19.775Z" fill="black"/>
<path d="M17.708 39.5834C17.5184 39.5834 17.3268 39.5479 17.1434 39.4771C16.5413 39.2459 16.1455 38.6667 16.1455 38.0209V26.0417C16.1455 25.5646 16.3622 25.1167 16.733 24.8188L47.4622 0.339603C48.1393 -0.19373 49.1226 -0.0874799 49.6601 0.58752C50.1976 1.26252 50.0851 2.24585 49.4122 2.78544L19.2705 26.7938V33.9771L24.4393 28.2896C25.0184 27.6479 26.008 27.6042 26.6455 28.1834C27.2851 28.7625 27.333 29.7521 26.7518 30.3896L18.8643 39.0709C18.5622 39.4042 18.1393 39.5834 17.708 39.5834Z" fill="black"/>
<path d="M16.6375 41.3625C16.3396 41.3625 16.0417 41.2791 15.775 41.102C15.0563 40.625 14.8625 39.6562 15.3375 38.9354C15.95 38.0145 16.3 37.3395 16.3188 37.3062C16.7104 36.5395 17.6479 36.2333 18.4208 36.6333C19.1875 37.025 19.4917 37.9666 19.1 38.7333C19.1 38.7333 18.6854 39.5458 17.9417 40.6666C17.6417 41.1166 17.1438 41.3625 16.6375 41.3625V41.3625Z" fill="black"/>
<path d="M5.84815 47.1042C5.71481 47.1042 5.57523 47.0854 5.43981 47.05C3.47523 46.5167 2.03565 45.3333 1.16273 43.5292C0.787731 42.7521 1.11481 41.8188 1.8919 41.4417C2.67523 41.0667 3.6044 41.3958 3.9794 42.1708C4.45648 43.1646 5.16065 43.7375 6.25856 44.0375C7.08981 44.2625 7.58356 45.1229 7.35648 45.9542C7.16481 46.6479 6.53773 47.1042 5.84815 47.1042V47.1042ZM10.1794 47.0938C9.52107 47.0938 8.90856 46.675 8.6919 46.0125C8.42731 45.1896 8.87731 44.3104 9.69606 44.0438C10.694 43.7229 11.7294 43.0521 12.7711 42.0563C13.394 41.4604 14.3815 41.4792 14.9815 42.1042C15.5773 42.7292 15.5544 43.7167 14.9336 44.3146C13.5481 45.6396 12.1127 46.5479 10.6627 47.0188C10.5002 47.0708 10.3377 47.0938 10.1794 47.0938V47.0938Z" fill="black"/>
<path d="M1.62292 40.1062C0.80625 40.1062 0.11875 39.4708 0.0666667 38.6458C0.0229167 37.9646 0 37.2333 0 36.4583C0 35.5958 0.7 34.8958 1.5625 34.8958C2.425 34.8958 3.125 35.5958 3.125 36.4583C3.125 37.1604 3.14375 37.8208 3.18333 38.4416C3.23958 39.3021 2.58958 40.0479 1.72708 40.1021C1.69167 40.1041 1.65833 40.1062 1.62292 40.1062V40.1062Z" fill="black"/>
</g>
<defs>
<clipPath id="clip0">
<rect width="50" height="50" fill="white"/>
</clipPath>
</defs>
</svg>

<svg width="50" height="50" fill="none" xmlns="http://www.w3.org/2000/svg"><g clip-path="url(#a)" fill="#000"><path d="M38.542 35.417c-.188 0-.377-.036-.557-.102L1.006 21.252a1.561 1.561 0 0 1-.008-2.917L47.873.106a1.57 1.57 0 0 1 1.63.31c.437.409.605 1.032.428 1.605l-9.896 32.291a1.56 1.56 0 0 1-1.494 1.104ZM5.917 19.775 37.537 31.8l8.46-27.613-40.08 15.588Z"/><path d="M17.708 39.583a1.558 1.558 0 0 1-1.563-1.563V26.043c0-.477.217-.925.588-1.223L47.463.339a1.569 1.569 0 0 1 2.197.249 1.567 1.567 0 0 1-.248 2.197L19.27 26.794v7.183l5.17-5.687a1.56 1.56 0 0 1 2.205-.107c.64.58.688 1.57.107 2.207l-7.888 8.68a1.56 1.56 0 0 1-1.156.513Z"/><path d="M16.637 41.362a1.565 1.565 0 0 1-1.3-2.427c.613-.92.963-1.595.982-1.629a1.553 1.553 0 0 1 2.102-.673 1.562 1.562 0 0 1 .679 2.1s-.415.813-1.158 1.934c-.3.45-.798.695-1.305.695ZM5.848 47.104a1.63 1.63 0 0 1-.408-.054c-1.965-.533-3.404-1.717-4.277-3.52a1.564 1.564 0 0 1 2.817-1.358c.476.993 1.18 1.566 2.279 1.866a1.562 1.562 0 0 1 1.097 1.916 1.565 1.565 0 0 1-1.508 1.15Zm4.331-.01c-.658 0-1.27-.419-1.487-1.081a1.565 1.565 0 0 1 1.004-1.97c.998-.32 2.033-.99 3.075-1.987a1.563 1.563 0 1 1 2.163 2.259c-1.386 1.325-2.821 2.233-4.271 2.704a1.58 1.58 0 0 1-.484.075ZM1.623 40.106a1.56 1.56 0 0 1-1.556-1.46A34.244 34.244 0 0 1 0 36.458a1.563 1.563 0 0 1 3.125 0c0 .702.019 1.363.058 1.984a1.56 1.56 0 0 1-1.456 1.66c-.035.002-.069.004-.104.004Z"/></g><defs><clipPath id="a"><path fill="#fff" d="M0 0h50v50H0z"/></clipPath></defs></svg>
